assets/symbols/mulberry/date.svg

<svg height="850.394" viewBox="0 0 850.394 850.394" width="850.394" xmlns="http://www.w3.org/2000/svg"><path d="m108.26 642.62h633.21v128.42h-633.21z" fill="#ff001c"/><path d="m422.74 171.24c55.319 0 100.16 44.85 100.16 100.17 0 55.31-44.841 100.15-100.16 100.15-55.32 0-100.16-44.84-100.16-100.15 0-55.32 44.84-100.17 100.16-100.17z" fill="#fff400"/><g fill="none"><path d="m751.73 565.69h-654.46m425.63-294.28c0 55.31-44.841 100.15-100.16 100.15-55.32 0-100.16-44.84-100.16-100.15 0-55.32 44.84-100.17 100.16-100.17s100.16 44.85 100.16 100.17zm-100.94-118.4v-76.2m-60.78 91.03-42.1-63.52m-1.54 110.34-69.03-32.26m236.39-15.77 42.09-63.52m1.53 110.34 69.04-32.26m-115.17 194.62 42.11 63.52m1.53-110.35 69.04 32.26m-236.39 15.79-42.1 63.51m-1.54-110.33-69.04 32.26m57.35-89.88h-76.19m389.98 0h-76.2m-118.98 191.85v-76.2m-313.7 254.38h633.21v128.42h-633.21z" stroke="#231f20" stroke-width="21"/><path d="m0 0h850.394v850.394h-850.394z"/></g></svg>

<svg xmlns="http://www.w3.org/2000/svg" width="850.394" height="850.394" viewBox="0 0 850.394 850.394" overflow="visible"><path fill="#ff001c" d="M108.26 642.62h633.21v128.42H108.26z"/><path d="M422.74 171.24c55.319 0 100.16 44.85 100.16 100.17 0 55.31-44.841 100.15-100.16 100.15-55.32 0-100.16-44.84-100.16-100.15 0-55.32 44.84-100.17 100.16-100.17z" fill="#fff400"/><g fill="none" stroke="#231f20" stroke-width="21"><path d="M751.73 565.69H97.27M522.9 271.41c0 55.31-44.841 100.15-100.16 100.15-55.32 0-100.16-44.84-100.16-100.15 0-55.32 44.84-100.17 100.16-100.17 55.32 0 100.16 44.85 100.16 100.17zM421.96 153.01v-76.2M361.18 167.84l-42.1-63.52M317.54 214.66l-69.03-32.26M484.9 166.63l42.09-63.52M528.52 213.45l69.04-32.26M482.39 375.81l42.11 63.52M526.03 328.98l69.04 32.26M358.68 377.03l-42.1 63.51M315.04 330.21L246 362.47M303.35 272.59h-76.19M617.14 272.59h-76.2M421.96 464.44v-76.2M108.26 642.62h633.21v128.42H108.26z"/></g><path fill="none" d="M0 0h850.394v850.394H0z"/></svg>
